dist/images/risk-3.svg

<svg width="48" height="47" viewBox="0 0 48 47" fill="none" xmlns="http://www.w3.org/2000/svg">
<path d="M38.0694 41.3793H6.62109V3.31034C6.62109 1.48222 8.10331 0 9.93144 0H44.6901C42.8619 0 41.3797 1.48222 41.3797 3.31034V38.069C41.3797 39.8971 39.8975 41.3793 38.0694 41.3793Z" fill="url(#paint0_linear_747_297818)"/>
<path d="M7.44824 41.3803H38.0689C39.8971 41.3803 41.3793 39.898 41.3793 38.0699V7.44922L7.44824 41.3803Z" fill="black" fill-opacity="0.2"/>
<path d="M47.9996 4.96552H41.3789V3.31034C41.3789 1.48222 42.8611 0 44.6893 0C46.5174 0 47.9996 1.48222 47.9996 3.31034V4.96552Z" fill="url(#paint1_linear_747_297818)"/>
<path d="M0 36.4141V38.0692C0 39.8974 1.48222 41.3796 3.31034 41.3796H38.069C36.2408 41.3796 34.7586 39.8974 34.7586 38.0692V36.4141H0Z" fill="url(#paint2_linear_747_297818)"/>
<path d="M29.8135 33.9316V46.3454L33.1238 43.8627L36.4342 46.3454V33.9316H29.8135Z" fill="url(#paint3_linear_747_297818)"/>
<path d="M29.8135 33.9316V35.961C30.3089 36.3316 30.9704 36.3926 31.5248 36.119C31.7632 36.7922 32.3997 37.242 33.1137 37.242C33.8277 37.242 34.4642 36.7922 34.7022 36.119C35.2651 36.397 35.9371 36.33 36.4342 35.9469V33.9316H29.8135Z" fill="black" fill-opacity="0.2"/>
<path d="M36.9489 29.0292C37.2556 28.3843 37.1234 27.6165 36.6191 27.1114C36.1148 26.6063 35.347 26.4725 34.7021 26.778C34.4637 26.1056 33.8272 25.6562 33.114 25.6562C32.4004 25.6562 31.7639 26.1056 31.5255 26.778C30.8806 26.4721 30.1128 26.6055 29.6081 27.111C29.1038 27.6165 28.9725 28.3847 29.2796 29.0292C28.6072 29.2693 28.1582 29.9065 28.1582 30.6206C28.1582 31.3346 28.6072 31.9718 29.2796 32.2119C28.9725 32.8564 29.1038 33.6246 29.6081 34.1301C30.1128 34.6356 30.8806 34.769 31.5255 34.4631C31.7639 35.1355 32.4004 35.5849 33.114 35.5849C33.8272 35.5849 34.4637 35.1355 34.7021 34.4631C35.347 34.7686 36.1148 34.6348 36.6191 34.1297C37.1234 33.6246 37.2556 32.8568 36.9489 32.2119C37.6205 31.971 38.0686 31.3342 38.0686 30.6206C38.0686 29.9069 37.6205 29.2701 36.9489 29.0292Z" fill="#FFC24F"/>
<path d="M36.9485 29.03C37.2144 28.4857 37.1614 27.8395 36.8111 27.3457C35.9083 30.6617 33.4611 33.3388 30.2393 34.5349C30.6599 34.6873 31.1242 34.6614 31.5251 34.4638C31.7635 35.1371 32.4 35.5868 33.114 35.5868C33.828 35.5868 34.4645 35.1371 34.7025 34.4638C35.3474 34.7697 36.1156 34.6364 36.6199 34.1309C37.1242 33.6253 37.256 32.8571 36.9485 32.2126C37.6201 31.9718 38.0682 31.3349 38.0682 30.6213C38.0682 29.9077 37.6201 29.2708 36.9485 29.03Z" fill="#FFBA38"/>
<path d="M26.4824 5.79297H29.7928V7.44814H26.4824V5.79297Z" fill="white"/>
<path d="M18.207 5.79297H24.8277V7.44814H18.207V5.79297Z" fill="white"/>
<path d="M15.7236 9.93164H32.2754V11.5868H15.7236V9.93164Z" fill="white"/>
<path d="M11.5859 14.8965H15.7239V16.5517H11.5859V14.8965Z" fill="white"/>
<path d="M11.5859 19.0352H20.6894V20.6903H11.5859V19.0352Z" fill="white"/>
<path d="M17.3789 14.8965H36.4134V16.5517H17.3789V14.8965Z" fill="white"/>
<path d="M22.3447 19.0352H36.4137V20.6903H22.3447V19.0352Z" fill="white"/>
<path d="M11.5859 23.1719H28.1377V24.827H11.5859V23.1719Z" fill="white"/>
<path d="M11.5859 27.3105H25.6549V28.9657H11.5859V27.3105Z" fill="white"/>
<defs>
<linearGradient id="paint0_linear_747_297818" x1="25.6556" y1="0" x2="25.6556" y2="41.3793" gradientUnits="userSpaceOnUse">
<stop stop-color="#4396D2"/>
<stop offset="1" stop-color="#1E6CB4"/>
</linearGradient>
<linearGradient id="paint1_linear_747_297818" x1="44.6893" y1="0" x2="44.6893" y2="4.96552" gradientUnits="userSpaceOnUse">
<stop stop-color="#4396D2"/>
<stop offset="1" stop-color="#1E6CB4"/>
</linearGradient>
<linearGradient id="paint2_linear_747_297818" x1="19.0345" y1="36.4141" x2="19.0345" y2="41.3796" gradientUnits="userSpaceOnUse">
<stop stop-color="#4396D2"/>
<stop offset="1" stop-color="#1E6CB4"/>
</linearGradient>
<linearGradient id="paint3_linear_747_297818" x1="33.1238" y1="33.9316" x2="33.1238" y2="46.3454" gradientUnits="userSpaceOnUse">
<stop stop-color="#43D26B"/>
<stop offset="1" stop-color="#1EB463"/>
</linearGradient>
</defs>
</svg>

<svg width="48" height="47" fill="none" xmlns="http://www.w3.org/2000/svg"><path d="M38.07 41.38H6.62V3.31A3.31 3.31 0 019.931 0h34.76a3.31 3.31 0 00-3.311 3.31v34.76a3.31 3.31 0 01-3.31 3.31z" fill="url(#paint0_linear_747_297818)"/><path d="M7.448 41.38h30.62a3.31 3.31 0 003.311-3.31V7.45L7.45 41.38z" fill="#000" fill-opacity=".2"/><path d="M48 4.966h-6.621V3.31a3.31 3.31 0 016.62 0v1.656z" fill="url(#paint1_linear_747_297818)"/><path d="M0 36.414v1.655a3.31 3.31 0 003.31 3.31h34.76a3.31 3.31 0 01-3.31-3.31v-1.655H0z" fill="url(#paint2_linear_747_297818)"/><path d="M29.814 33.932v12.413l3.31-2.482 3.31 2.482V33.932h-6.62z" fill="url(#paint3_linear_747_297818)"/><path d="M29.814 33.932v2.029c.495.37 1.156.432 1.71.158a1.686 1.686 0 003.178 0 1.645 1.645 0 001.732-.172v-2.015h-6.62z" fill="#000" fill-opacity=".2"/><path d="M36.949 29.03a1.688 1.688 0 00-2.247-2.252 1.685 1.685 0 00-3.176 0 1.688 1.688 0 00-2.246 2.251 1.69 1.69 0 000 3.183 1.688 1.688 0 002.245 2.251 1.685 1.685 0 003.177 0 1.688 1.688 0 002.247-2.251 1.69 1.69 0 000-3.183z" fill="#FFC24F"/><path d="M36.949 29.03a1.656 1.656 0 00-.138-1.684 10.654 10.654 0 01-6.572 7.189c.42.152.885.126 1.286-.071a1.685 1.685 0 003.178 0 1.687 1.687 0 002.245-2.251 1.69 1.69 0 000-3.183z" fill="#FFBA38"/><path d="M26.482 5.793h3.31v1.655h-3.31V5.793zm-8.275 0h6.62v1.655h-6.62V5.793zm-2.483 4.139h16.551v1.655H15.724V9.932zm-4.138 4.964h4.138v1.656h-4.138v-1.655zm0 4.139h9.103v1.655h-9.103v-1.655zm5.793-4.139h19.034v1.656H17.38v-1.655zm4.966 4.139h14.069v1.655h-14.07v-1.655zm-10.759 4.137h16.552v1.655H11.586v-1.655zm0 4.138h14.069v1.656h-14.07V27.31z" fill="#fff"/><defs><linearGradient id="paint0_linear_747_297818" x1="25.656" y1="0" x2="25.656" y2="41.379" gradientUnits="userSpaceOnUse"><stop stop-color="#4396D2"/><stop offset="1" stop-color="#1E6CB4"/></linearGradient><linearGradient id="paint1_linear_747_297818" x1="44.689" y1="0" x2="44.689" y2="4.966" gradientUnits="userSpaceOnUse"><stop stop-color="#4396D2"/><stop offset="1" stop-color="#1E6CB4"/></linearGradient><linearGradient id="paint2_linear_747_297818" x1="19.035" y1="36.414" x2="19.035" y2="41.38" gradientUnits="userSpaceOnUse"><stop stop-color="#4396D2"/><stop offset="1" stop-color="#1E6CB4"/></linearGradient><linearGradient id="paint3_linear_747_297818" x1="33.124" y1="33.932" x2="33.124" y2="46.345" gradientUnits="userSpaceOnUse"><stop stop-color="#43D26B"/><stop offset="1" stop-color="#1EB463"/></linearGradient></defs></svg>
